icons/save.svg

<svg width="24" height="24" viewBox="0 0 24 24" fill="none" xmlns="http://www.w3.org/2000/svg">
<path fill-rule="evenodd" clip-rule="evenodd" d="M7 3.75C5.21421 3.75 3.75 5.21421 3.75 7V17C3.75 18.7858 5.21421 20.25 7 20.25H7.75V17C7.75 15.4858 8.98579 14.25 10.5 14.25H13.5C15.0142 14.25 16.25 15.4858 16.25 17V20.25H17C18.7858 20.25 20.25 18.7858 20.25 17V10.7C20.25 9.90517 19.9335 9.09416 19.2697 8.43032L15.552 4.71267L15.5356 4.69388C14.9972 4.07864 14.2148 3.75 13.3 3.75H7ZM16.25 21.75H7.75H7C4.38579 21.75 2.25 19.6142 2.25 17V7C2.25 4.38579 4.38579 2.25 7 2.25H13.3C14.5766 2.25 15.7865 2.71508 16.6471 3.68646L20.3303 7.36966C21.2665 8.30583 21.75 9.49483 21.75 10.7V17C21.75 19.6142 19.6142 21.75 17 21.75H16.25ZM14.75 20.25V17C14.75 16.3142 14.1858 15.75 13.5 15.75H10.5C9.81421 15.75 9.25 16.3142 9.25 17V20.25H14.75ZM12 7.75C11.5858 7.75 11.25 8.08579 11.25 8.5C11.25 8.91421 11.5858 9.25 12 9.25C12.4142 9.25 12.75 8.91421 12.75 8.5C12.75 8.08579 12.4142 7.75 12 7.75ZM9.75 8.5C9.75 7.25736 10.7574 6.25 12 6.25C13.2426 6.25 14.25 7.25736 14.25 8.5C14.25 9.74264 13.2426 10.75 12 10.75C10.7574 10.75 9.75 9.74264 9.75 8.5Z" fill="black"/>
</svg>

<svg xmlns="http://www.w3.org/2000/svg" fill="none" viewBox="0 0 24 24">
  <path fill="#000" fill-rule="evenodd" d="M7 3.75A3.262 3.262 0 0 0 3.75 7v10A3.262 3.262 0 0 0 7 20.25h.75V17a2.756 2.756 0 0 1 2.75-2.75h3A2.756 2.756 0 0 1 16.25 17v3.25H17A3.262 3.262 0 0 0 20.25 17v-6.3c0-.795-.317-1.606-.98-2.27l-3.718-3.717-.016-.02c-.539-.614-1.321-.943-2.236-.943H7Zm9.25 18H7A4.762 4.762 0 0 1 2.25 17V7A4.762 4.762 0 0 1 7 2.25h6.3c1.277 0 2.486.465 3.347 1.436L20.33 7.37c.937.936 1.42 2.125 1.42 3.33V17A4.762 4.762 0 0 1 17 21.75h-.75Zm-1.5-1.5V17c0-.686-.564-1.25-1.25-1.25h-3c-.686 0-1.25.564-1.25 1.25v3.25h5.5ZM12 7.75a.75.75 0 1 0 0 1.5.75.75 0 0 0 0-1.5Zm-2.25.75a2.25 2.25 0 1 1 4.5 0 2.25 2.25 0 0 1-4.5 0Z" clip-rule="evenodd"/>
</svg>
